resources/assets/img/icons/download-full-reverse.svg

<svg width="44" height="44" viewBox="0 0 44 44" xmlns="http://www.w3.org/2000/svg"><title>download-full-reverse</title><g fill="none" fill-rule="evenodd"><path d="M29 19h-4v-6h-6v6h-4l7 7 7-7zm-14 9v2h14v-2H15z" fill="#FFF"/><circle stroke="#FFF" stroke-width="2" cx="22" cy="22" r="21"/></g></svg>

<?xml version="1.0" encoding="UTF-8" standalone="no"?>
<svg width="44px" height="44px" viewBox="0 0 44 44" version="1.1" xmlns="http://www.w3.org/2000/svg" xmlns:xlink="http://www.w3.org/1999/xlink" xmlns:sketch="http://www.bohemiancoding.com/sketch/ns">
    <!-- Generator: Sketch 3.5.2 (25235) - http://www.bohemiancoding.com/sketch -->
    <title>download-full-reverse</title>
    <desc>Created with Sketch.</desc>
    <defs></defs>
    <g id="individual-icons" stroke="none" stroke-width="1" fill="none" fill-rule="evenodd" sketch:type="MSPage">
        <g id="download-full-reverse" sketch:type="MSArtboardGroup">
            <path d="M29,19 L25,19 L25,13 L19,13 L19,19 L15,19 L22,26 L29,19 L29,19 Z M15,28 L15,30 L29,30 L29,28 L15,28 L15,28 Z" id="Shape" fill="#FFFFFF" sketch:type="MSShapeGroup"></path>
            <circle id="circle" stroke="#FFFFFF" stroke-width="2" sketch:type="MSShapeGroup" cx="22" cy="22" r="21"></circle>
        </g>
    </g>
</svg>
